polaris-icons/icons/newicons/FraudProtectMajor.svg

<svg width="20" height="20" viewBox="0 0 20 20" fill="none" xmlns="http://www.w3.org/2000/svg">
<path d="M8.86679 2.99272C9.51632 2.42691 10.4837 2.42691 11.1332 2.99272C12.417 4.11105 13.8835 5.00034 15.4687 5.62172L15.8887 5.78636C16.5505 6.04579 17.0209 6.6983 16.9813 7.45459C16.9505 8.04307 16.8824 8.60392 16.7827 9.1378C16.7068 9.54498 16.3151 9.81348 15.9079 9.73751C15.5007 9.66153 15.2322 9.26985 15.3082 8.86267C15.3956 8.39402 15.456 7.89888 15.4833 7.37615C15.4868 7.3107 15.4455 7.22378 15.3412 7.1829L14.9212 7.01826C13.176 6.33412 11.5614 5.35503 10.1479 4.12376C10.0631 4.04989 9.93685 4.04989 9.85206 4.12376C8.4386 5.35503 6.82399 6.33413 5.07875 7.01826L4.65875 7.1829C4.55458 7.22373 4.51323 7.31071 4.51666 7.37628C4.68708 10.6299 6.13868 12.8606 7.55326 14.2885C8.26288 15.0047 8.96201 15.517 9.48125 15.8488C9.74042 16.0144 9.95339 16.1341 10.0985 16.2111C10.171 16.2496 10.2265 16.2773 10.2621 16.2946C10.2706 16.2987 10.278 16.3023 10.2842 16.3052C10.291 16.3085 10.2964 16.311 10.3003 16.3128L10.3072 16.316C10.6848 16.4856 10.8537 16.929 10.6844 17.3069C10.5151 17.6849 10.0714 17.854 9.69336 17.6847L9.99999 17.0002C9.69336 17.6847 9.69372 17.6848 9.69336 17.6847L9.6918 17.684L9.6897 17.683L9.6839 17.6804L9.66599 17.6721C9.6513 17.6653 9.63115 17.6557 9.60589 17.6434C9.55539 17.6189 9.4844 17.5833 9.39576 17.5363C9.21856 17.4423 8.97025 17.3023 8.67361 17.1128C8.08121 16.7343 7.29058 16.1546 6.48767 15.3442C4.87718 13.7186 3.21263 11.157 3.01871 7.45474C2.97911 6.69857 3.44938 6.04584 4.11131 5.78636L4.53131 5.62172C6.11647 5.00034 7.58299 4.11105 8.86679 2.99272Z" fill="black"/>
<path d="M17.7219 16.9878C17.2448 16.0734 16.2989 15.5 15.2675 15.5H15.2325C14.2011 15.5 13.2552 16.0734 12.7781 16.9878C12.5377 17.4486 12.872 18 13.3917 18H17.1083C17.628 18 17.9623 17.4486 17.7219 16.9878Z" fill="black"/>
<path d="M15.25 14.5C16.0784 14.5 16.75 13.8284 16.75 13C16.75 12.1716 16.0784 11.5 15.25 11.5C14.4216 11.5 13.75 12.1716 13.75 13C13.75 13.8284 14.4216 14.5 15.25 14.5Z" fill="black"/>
</svg>

<svg viewBox="0 0 20 20" fill="none" xmlns="http://www.w3.org/2000/svg"><path d="M8.867 2.993a1.725 1.725 0 0 1 2.266 0 14.853 14.853 0 0 0 4.336 2.629l.42.164c.662.26 1.132.912 1.092 1.669-.03.588-.099 1.149-.198 1.683a.75.75 0 1 1-1.475-.275c.088-.469.148-.964.175-1.487.004-.065-.038-.152-.142-.193l-.42-.165a16.355 16.355 0 0 1-4.773-2.894.225.225 0 0 0-.296 0 16.354 16.354 0 0 1-4.773 2.894l-.42.165c-.104.04-.146.128-.142.193.17 3.254 1.622 5.485 3.036 6.913.71.716 1.409 1.228 1.928 1.56a8.942 8.942 0 0 0 .781.446l.022.01a.875.875 0 0 0 .016.008l.007.003a.75.75 0 0 1-.614 1.369l.307-.685-.307.685-.001-.001-.002-.001-.006-.003-.018-.008a6.666 6.666 0 0 1-.27-.136 10.448 10.448 0 0 1-.722-.423 12.824 12.824 0 0 1-2.186-1.769c-1.61-1.625-3.275-4.187-3.47-7.89a1.704 1.704 0 0 1 1.093-1.668l.42-.164a14.854 14.854 0 0 0 4.336-2.63Z" fill="#000"/><path d="M17.722 16.988a2.768 2.768 0 0 0-2.455-1.488h-.034a2.768 2.768 0 0 0-2.455 1.488.692.692 0 0 0 .614 1.012h3.716c.52 0 .854-.551.614-1.012Z" fill="#000"/><path d="M15.25 14.5a1.5 1.5 0 1 0 0-3 1.5 1.5 0 0 0 0 3Z" fill="#000"/></svg>
